T: On The Banks Of Lake Merlot
M: 4/4
L: 1/8
K: Cmaj
|:c3 G EGce|dcBA (3Bcd AB|cGEG CGEG|G,GFE DG, (3B,A,G,|
B,3 C DE (3FED|CEDF ~E3G|~F3 A GABc|~B3 c dB c2:|
|:g3 f edcB|cGEG CGEG|^c2 cd ef (3gfe|fed^c dAFA|
B3c defd|cGDF ~E3 G|~F3A GABc|~B3c dB c2:|
|:E2 (3FED EA,~A,2|G,A,CD CA,~A,2|G,A,CD CEDF|
~E3 B cBAG|EAAB c2 cB|cBAG~E3D|(3EFG DECE DB,|G,2 (3A,B,C B,G, A,2:|
